packages/assets/static/images/icons/catalog.svg

<svg width="24" height="24" viewBox="0 0 24 24" xmlns="http://www.w3.org/2000/svg">
<path d="M22.2586 20.8021H1.74234C1.32797 20.8021 0.99234 20.4665 0.99234 20.0521V10.9978C0.99234 10.5834 1.32797 10.2478 1.74234 10.2478H7.93546C8.07421 10.2478 8.21109 10.2862 8.32921 10.3593L9.55453 11.1159H14.2205L15.1786 10.3978C15.308 10.3003 15.4664 10.2478 15.6286 10.2478H22.2577C22.672 10.2478 23.0077 10.5834 23.0077 10.9978V20.0521C23.0077 20.4665 22.673 20.8021 22.2586 20.8021ZM2.49234 19.3021H21.5077V11.7478H15.8789L14.9208 12.4659C14.7914 12.5634 14.633 12.6159 14.4708 12.6159H9.34171C9.20296 12.6159 9.06609 12.5774 8.94797 12.5043L7.72265 11.7478H2.49234V19.3021Z"/>
<path d="M19.2952 4.69775H4.70578C4.2914 4.69775 3.95578 4.36213 3.95578 3.94775C3.95578 3.53338 4.2914 3.19775 4.70578 3.19775H19.2952C19.7095 3.19775 20.0452 3.53338 20.0452 3.94775C20.0452 4.36213 19.7095 4.69775 19.2952 4.69775Z"/>
<path d="M20.6377 8.25275H3.36328C2.9489 8.25275 2.61328 7.91713 2.61328 7.50275C2.61328 7.08838 2.9489 6.75275 3.36328 6.75275H20.6377C21.052 6.75275 21.3877 7.08838 21.3877 7.50275C21.3877 7.91713 21.052 8.25275 20.6377 8.25275Z"/>
<path d="M15.7505 16.6818H8.25047C7.83609 16.6818 7.50047 16.3462 7.50047 15.9318C7.50047 15.5174 7.83609 15.1818 8.25047 15.1818H15.7505C16.1648 15.1818 16.5005 15.5174 16.5005 15.9318C16.5005 16.3462 16.1648 16.6818 15.7505 16.6818Z"/>
</svg>

<svg viewBox="0 0 24 24" xmlns="http://www.w3.org/2000/svg" aria-hidden="true" fill="currentColor"><path d="M22.259 20.802H1.742a.75.75 0 0 1-.75-.75v-9.054a.75.75 0 0 1 .75-.75h6.193a.75.75 0 0 1 .394.111l1.226.757h4.666l.958-.718a.75.75 0 0 1 .45-.15h6.629a.75.75 0 0 1 .75.75v9.054c0 .415-.335.75-.75.75m-19.767-1.5h19.016v-7.554h-5.63l-.957.718a.75.75 0 0 1-.45.15H9.34a.75.75 0 0 1-.393-.112l-1.225-.756h-5.23zM19.295 4.698H4.705a.75.75 0 1 1 0-1.5h14.59a.75.75 0 1 1 0 1.5m1.343 3.555H3.363a.75.75 0 1 1 0-1.5h17.275a.75.75 0 1 1 0 1.5"/><path d="M15.75 16.682h-7.5a.75.75 0 1 1 0-1.5h7.5a.75.75 0 1 1 0 1.5"/></svg>
